!!!!SEGMENT: pl-gd--ee-1638--007-014_marenzio-luca--il-terzo-libro-de-madrigalia-a-sei-voci-dono-cinthia.krn
!!!cenid: 15xx:855
!!!COM: Marenzio, Luca
!!!COM-rismID: pe30003955
!!!CDT: ~1553-1599/08/22
!!!CNT: Italian
!!!GTL: Il Terzo Libro de madrigalia a sei voci
!!!OTL: Donò Cinthia
!!!OMV: 014
!!!PDT: 1585
!!!AGN:
!!!SMS-siglum: PL-GD
!!!SMS-shelfmark: Ee 1638
!!!SMS-variant:
!!!SMS-altvar:
!!!SMS-shelfwork: 007-014 G
!!!NIFC-rismSourceID: 1001202747
!!!NIFC-rismChildID: 990039250
!!!NIFC-islandoraID: pl-gd:57883
!!!URL-pdf-islandora: https://repozytorium.nifc.pl/islandora/object/pl-gd%3A57883/datastream/PDF/view
!!!URL-scan: https://polish.musicsources.pl/pl/lokalizacje/galeria/klocki-introligatorskie/655 @EN{Scan on Polish Music Sources Website} @PL{Skany w portalu Dziedzictwo Muzyki Polskiej w otwartym dostępie}
!!!ONB-nifc: UWAGA: zbiór na stronach: Canto: s. 694-704, Alto: s. 542-552, Tenore: s. 390-400, Basso: s. 237-248, Quinto: s. 85-96, Sesto: s. 3-14. Uwaga: utwory podzielone wg tytułów w spisach treści dostępnych na końcu każdej księgi głosowej.
!!!AIN: 1 alto 1 bass 1 quinto 1 sesto 1 soprn 1 tenor
!!!key:
**kern	**text	**kern	**text	**kern	**text	**kern	**text	**kern	**text	**kern	**text
*part6	*part6	*part5	*part5	*part4	*part4	*part3	*part3	*part2	*part2	*part1	*part1
*staff6	*staff6	*staff5	*staff5	*staff4	*staff4	*staff3	*staff3	*staff2	*staff2	*staff1	*staff1
*I"Sesto	*	*I"Quinto	*	*I"Basso	*	*I"Tenore	*	*I"Alto	*	*I"Canto	*
*I'S	*	*I'Q	*	*I'B	*	*I'T	*	*I'A	*	*I'C	*
*Isesto	*	*Iquinto	*	*Ibass	*	*Itenor	*	*Ialto	*	*Isoprn	*
*ICvox	*	*ICvox	*	*ICvox	*	*ICvox	*	*ICvox	*	*ICvox	*
*IG	*	*	*	*	*	*	*	*	*	*	*
*clefC4	*	*clefC1	*	*clefF4	*	*clefC4	*	*clefC3	*	*clefC1	*
*k[b-]	*	*k[b-]	*	*k[b-]	*	*k[b-]	*	*k[b-]	*	*k[b-]	*
*d:	*	*d:	*	*d:	*	*d:	*	*d:	*	*d:	*
*M2/1	*	*M2/1	*	*M2/1	*	*M2/1	*	*M2/1	*	*M2/1	*
*met(C)	*	*met(C)	*	*met(C)	*	*met(C)	*	*met(C)	*	*met(C)	*
=1-	=1-	=1-	=1-	=1-	=1-	=1-	=1-	=1-	=1-	=1-	=1-
!	!	!	!	!LO:TX:b:t=D onò	!	!LO:TX:b:t=D onò	!	!	!	!LO:TX:a:B:t=Prestissimo	!
1D	DO-	1f	Do-	0r	.	0r	.	1d	Do-	1a	Do-
1A	-nò	1e	-nò	.	.	.	.	1c#X	-nò	1a	-nò
=2-	=2-	=2-	=2-	=2-	=2-	=2-	=2-	=2-	=2-	=2-	=2-
4r	.	4r	.	0r	.	0r	.	4r	.	4r	.
4.F/	Cin-	4.a\	Cin-	.	.	.	.	4.f\	Cin-	4.cc\	Cin-
8F/	-thia a	8a\	-thia a	.	.	.	.	8f\	-thia a	8cc\	-thia a
4F/	Da-	4a\	Da-	.	.	.	.	4f\	Da-	4cc\	Da-
1B-	-mo-	1b-	-mo-	.	.	.	.	1f	-mo-	1dd	-mo-
=3-	=3-	=3-	=3-	=3-	=3-	=3-	=3-	=3-	=3-	=3-	=3-
2F/	-ne	2a\	-re	0r	.	0r	.	2f\	-ne	2cc\	-ne
4c\	u-	4g/	u-	.	.	.	.	4e\	u-	2r	.
4d\	-na	4f/	-na	.	.	.	.	4d\	-na	.	.
8c\	ro-	8g/	ro-	.	.	.	.	8e\	ro-	2r	.
8A\	.	8f\	.	.	.	.	.	8cny/	.	.	.
8B-\	.	8g/	.	.	.	.	.	8d\	.	.	.
8c\	.	8a\	.	.	.	.	.	8e\	.	.	.
8d\	.	8b-\	.	.	.	.	.	8f\	.	4r	.
8c\	.	8a\	.	.	.	.	.	8e\	.	.	.
!LO:SIC:v:t=custos e	!	!	!	!	!	!	!	!LO:SIC:v:t=custos c	!	!	!
2f\	.	8a\	.	.	.	.	.	4d\	.	8a\	V-
!LO:LB:g=original	!	!	!	!	!	!	!	!LO:LB:g=original	!	!	!
.	.	16g/	.	.	.	.	.	.	.	8b-\	-na
!	!	!LO:SIC:v:t=custos g	!	!	!	!	!	!	!	!	!
.	.	16f/	.	.	.	.	.	.	.	.	.
!	!	!LO:LB:g=original	!	!	!	!	!	!	!	!	!
=4-	=4-	=4-	=4-	=4-	=4-	=4-	=4-	=4-	=4-	=4-	=4-
.	.	1g	.	0r	.	0r	.	1c	-ſa	1cc	ro-
8e\	.	.	.	.	.	.	.	.	.	.	.
8d\	.	.	.	.	.	.	.	.	.	.	.
2e\	.	.	.	.	.	.	.	.	.	.	.
2f\	-ſa	2a\	-ſa	.	.	.	.	4r	.	4cc\	-ſa
.	.	.	.	.	.	.	.	2e\	cre-	2f/	cred'-
4B-\	cre-	4dd\	cred'	.	.	.	.	.	.	.	.
2c\	-d'io	2cc\	io	.	.	.	.	2g\	-d'io	2e/	-io
=5-	=5-	=5-	=5-	=5-	=5-	=5-	=5-	=5-	=5-	=5-	=5-
.	.	.	.	0r	.	0r	.	.	di	.	.
!	!	!	!	!	!	!	!	!	!	!LO:SIC:v:t=custos g	!
4G/	di	4b-\	di	.	.	.	.	4g\	pa-	2d/	di
!	!	!	!	!	!	!	!	!	!	!LO:LB:g=original	!
4d\	Pa-	4a\	Pa-	.	.	.	.	4f\	.	.	.
4B-\	-ra-	4g/	-ra-	.	.	.	.	8e\	.	2g/	pa-
.	.	.	.	.	.	.	.	8d\	.	.	.
1A	-di-	1a	-di-	.	.	.	.	4c#X/	.	.	.
.	.	.	.	.	.	.	.	2d\	-ra-	4f/	-ra-
.	.	.	.	.	.	.	.	.	.	2e/	-di-
.	.	.	.	.	.	.	.	4c#X/	-di-	.	.
=6-	=6-	=6-	=6-	=6-	=6-	=6-	=6-	=6-	=6-	=6-	=6-
1D	-ſo	2a\	-ſo	2r	.	2r	.	2d\	-ſo	2f#X/	-ſo
.	.	4r	.	2D/	E	2A/	E	4r	.	4r	.
.	.	4f#X/	E	.	.	.	.	4d\	E	4a\	E
1r	.	4.f#/	ſi	4.D/	ſi	4.A/	ſi	4.d\	ſi	4.a\	ſi
.	.	8f#/	ver-	8D/	ver-	8A/	ver-	8d\	ver-	8a\	ver-
.	.	4f#/	-migl'	4D/	-migl	4A/	-migl'	4d\	-migl'	4a\	-migl
.	.	4g/	in	4GG/	in	4G/	in	4d\	in	4bn\	in
=7-	=7-	=7-	=7-	=7-	=7-	=7-	=7-	=7-	=7-	=7-	=7-
1r	.	1g	vi-	1C	vi-	1G	vi-	1e	vi-	1cc	vi-
4r	.	4g/	-ſo	4C/	-ſo	1c	-ſo	4e\	-ſo	1cc	-ſo
!	!	!	!	!	!	!	!	!LO:SIC:v:t=custos f	!	!	!
4c\	Do-	4g/	Do-	4C/	Do-	.	.	4e\	Do-	.	.
!	!	!	!	!	!	!	!	!LO:LB:g=original	!	!	!
4A\	-nan-	4.a\	-nan-	4.F\	-nan-	.	.	4f\	-nan-	.	.
4c\	-do-	.	.	.	.	.	.	4f\	-do-	.	.
!	!	!LO:SIC:v:t=custos cc	!	!	!	!	!	!	!	!	!
.	.	8b-\	-do-	8G\	-do-	.	.	.	.	.	.
!	!	!LO:LB:g=original	!	!	!	!	!	!	!	!	!
=8-	=8-	=8-	=8-	=8-	=8-	=8-	=8-	=8-	=8-	=8-	=8-
4c\	-la	4cc\	-la	4A\	-la	2r	.	2f\	-la	0r	.
!	!	!	!	!LO:SIC:v:t=custos G	!	!	!	!	!	!	!
4d\	ſi	4fny/	ſi	4B-\	ſi	.	.	.	.	.	.
!	!	!	!	!LO:LB:g=original	!	!	!	!	!	!	!
2d\	fe-	4.b-\	fe-	4.G\	fe-	4r	.	2r	.	.	.
.	.	.	.	.	.	4B-\	ſi	.	.	.	.
.	.	8a\	-ce e	8F\	-ce e	.	.	.	.	.	.
2B-\	-ce e	8b-\	ſi	8G\	ſi	4.d\	fe-	1r	.	.	.
.	.	8cc\	vez-	8A\	vez-	.	.	.	.	.	.
.	.	2dd\	-zo-	2B-\	-zo-	.	.	.	.	.	.
.	.	.	.	.	.	8c\	-ce e	.	.	.	.
4G/	ſi	.	.	.	.	8d\	ſi	.	.	.	.
!	!	!	!	!	!	!LO:SIC:v:t=custos f	!	!	!	!	!
.	.	.	.	.	.	8e\	vez-	.	.	.	.
!	!	!	!	!	!	!LO:LB:g=original	!	!	!	!	!
!LO:SIC:v:t=custos ff	!	!	!	!	!	!	!	!	!	!	!
4c\	vez-	8cc\	.	8A\	.	2f\	-zo-	.	.	.	.
!LO:LB:g=original	!	!	!	!	!	!	!	!	!	!	!
.	.	8b-\	.	8G\	.	.	.	.	.	.	.
=9-	=9-	=9-	=9-	=9-	=9-	=9-	=9-	=9-	=9-	=9-	=9-
1f	-zo-	4a\	.	1F	.	.	.	1r	.	1r	.
.	.	2b-\	.	.	.	8e-X\	.	.	.	.	.
.	.	.	.	.	.	8d\	.	.	.	.	.
.	.	.	.	.	.	2c\	.	.	.	.	.
.	.	4a\	.	.	.	.	.	.	.	.	.
1f	-ſa	1b-	-ſa	1BB-	-ſa	1B-	-ſa	2r	.	2r	.
.	.	.	.	.	.	.	.	2d\	Che	4r	.
.	.	.	.	.	.	.	.	.	.	4dd\	Che
=10-	=10-	=10-	=10-	=10-	=10-	=10-	=10-	=10-	=10-	=10-	=10-
1r	.	0r	.	1r	.	0r	.	4e\	pa-	4cc\	pa-
.	.	.	.	.	.	.	.	4f\	-rea	4a\	-rea
.	.	.	.	.	.	.	.	2g\	ro-	2b-y\	ro-
4r	.	.	.	2D/	Che	.	.	2f\	-ſa	2a\	-ſa
4d\	Che	.	.	.	.	.	.	.	.	.	.
4c\	pa-	.	.	4E\	pa-	.	.	2r	.	2r	.
4A/	-rea	.	.	4F\	-rea	.	.	.	.	.	.
=11-	=11-	=11-	=11-	=11-	=11-	=11-	=11-	=11-	=11-	=11-	=11-
2B-\	ro-	2r	.	2G\	ro-	1r	.	4r	.	2r	.
.	.	.	.	.	.	.	.	8d\	che	.	.
.	.	.	.	.	.	.	.	8e\	do-	.	.
2A/	-ſa	4r	.	2F\	-ſa	.	.	2f\	-naſ-	4r	.
.	.	8a\	Che	.	.	.	.	.	.	8fny/	Che
!	!	!	!	!	!	!	!	!	!	!LO:SIC:v:t=custos a	!
.	.	8b-\	do-	.	.	.	.	.	.	8g/	do-
!	!	!	!	!	!	!	!	!	!	!LO:LB:g=original	!
1r	.	2.cc\	-naſ-	1r	.	4r	.	2f\	-ſe	2a\	-naſ-
.	.	.	.	.	.	8F/	Che	.	.	.	.
.	.	.	.	.	.	8G/	do-	.	.	.	.
.	.	.	.	.	.	4A/	-naſ-	2r	.	4e/	-ſe-
.	.	4b-\	-ſe	.	.	4G/	-ſe	.	.	2g/	.
=12-	=12-	=12-	=12-	=12-	=12-	=12-	=12-	=12-	=12-	=12-	=12-
1r	.	2a\	ro-	1r	.	2d\	ro-	1r	.	.	.
.	.	.	.	.	.	.	.	.	.	4f#X/	.
.	.	2g/	-ſa	.	.	2G/	-ſa	.	.	2g/	-ro
2B-\	All'-	2r	.	2G\	All'	2r	.	2d\	All'	2r	.
2B-\	-hor	4r	.	2G\	hor	4r	.	2d\	hor	4r	.
!	!	!LO:SIC:v:t=custos b	!	!	!	!	!	!	!	!	!
.	.	4b-\	Al-	.	.	4G/	All'	.	.	4dd\	All'
!	!	!LO:LB:g=original	!	!	!	!	!	!	!	!	!
=13-	=13-	=13-	=13-	=13-	=13-	=13-	=13-	=13-	=13-	=13-	=13-
4r	.	2b-\	-l'hor	4r	.	2G/	hor	2g\	a'l	2dd\	hor
!	!	!	!	!LO:SIC:v:t=custos B	!	!	!	!	!	!	!
4B-\	All'	.	.	4G\	Al-	.	.	.	.	.	.
!	!	!	!	!LO:LB:g=original	!	!	!	!	!	!	!
4d\	hor	4r	.	4B-\	-l'hor	4r	.	4f\	hor	4r	.
4.d\	diſ-	4.dd\	diſ-	4.BB-/	diſ-	4.B-\	diſſ	4.f\	diſ-	4.b-\	diſſ
8d\	-ſe il	8dd\	-ſe il	8BB-/	-ſe il	8B-\	il	8f\	-ſo il	8b-\	il
!	!	!	!	!	!	!	!	!LO:SIC:v:t=custos e	!	!	!
4d\	Paſ-	4dd\	Paſ-	4BB-/	Paſ-	4B-\	Paſ-	4f\	Pa-	4b-\	Paſ-
!	!	!	!	!	!	!	!	!LO:LB:g=original	!	!	!
1B-\	-to-	1ee-X\	-to-	1E-X\	-to-	1G/	-to-	1g\	-ſto-	1b-\	-to-
=14-	=14-	=14-	=14-	=14-	=14-	=14-	=14-	=14-	=14-	=14-	=14-
.	.	.	.	.	.	.	.	.	.	.	.
!	!	!	!	!	!	!LO:SIC:v:t=custos c	!	!	!	!	!
2d\	-re	2dd\	-re	2BB-/	-re	2B-\	-re	2f\	-re	2b-\	-re
!	!	!	!	!	!	!LO:LB:g=original	!	!	!	!	!
4A/	Con	4cc\	Con	4F\	Con	4c\	Con	4f\	Con	4a\	Con
!LO:SIC:v:t=custos G	!	!	!	!	!	!	!	!	!	!	!
4A/	un	4cc\	un	4F\	un	4c\	un	4f\	un	4a\	un
!LO:LB:g=original	!	!	!	!	!	!	!	!	!	!	!
4r	.	4r	.	4r	.	2r	.	4r	.	4r	.
4G/	ſoſ-	4g/	ſoſ-	4E-X\	ſoſ-	.	.	4B-/	ſoſ-	4b-\	Soſ-
=15-	=15-	=15-	=15-	=15-	=15-	=15-	=15-	=15-	=15-	=15-	=15-
2G/	-pir	4.g/	-pir	4.E-X\	-pir	0r	.	4.e-X\	-pir	4.b-\	-pir
.	.	8g/	d'A-	8C/	d'A-	.	.	8e-\	d'A-	8cc\	d'A-
!	!	!	!	!	!	!	!	!	!	!LO:SIC:v:t=custos a	!
2r	.	1f#X	-mo-	1D	-mo-	.	.	1d	-mo-	1a	-mo-
!	!	!	!	!	!	!	!	!	!	!LO:LB:g=original	!
1r	.	.	.	.	.	.	.	.	.	.	.
.	.	2f#/	-re	2D/	-re	.	.	2d\	-re	2a\	-re
=16-	=16-	=16-	=16-	=16-	=16-	=16-	=16-	=16-	=16-	=16-	=16-
0r	.	2g/	Per-	2G\	Per-	2d\	Per-	0r	.	4r	.
.	.	.	.	.	.	.	.	.	.	4b-\	Per-
.	.	4f#X/	-che	4D\	-che	4d\	-che	.	.	4a\	-che
.	.	4.g/	de-	4.G\	de-	4.d\	de-	.	.	4.b-\	de-
.	.	8g/	-gno	8G\	-gno	8d\	-gno	.	.	8b-\	-gno
!	!	!LO:SIC:v:t=custos b	!	!LO:SIC:v:t=custos B	!	!	!	!	!	!	!
.	.	4a\	non	4F\	non	4f\	non	.	.	4cc\	non
!	!	!LO:LB:g=original	!	!LO:LB:g=original	!	!	!	!	!	!	!
.	.	2b-\	ſo-	2B-\	ſo-	2f\	ſo-	.	.	2dd\	ſo-
=17-	=17-	=17-	=17-	=17-	=17-	=17-	=17-	=17-	=17-	=17-	=17-
4r	.	4b-\	-no	2BB-/	-no	2f\	-no	4r	.	4dd\	-ne
4B-\	D'ha-	4dd\	D'ha-	.	.	.	.	4f\	d'ha-	4d/	D'ha-
4A/	-uer	4cc\	-uer	2r	.	2r	.	4f\	-uer	4a\	-uer
4G/	la	4b-\	la	.	.	.	.	4g\	la	4b-\	la
4.F/	ro-	4.a\	ro-	1r	.	1r	.	4cny/	ro-	4.cc\	ro-
.	.	.	.	.	.	.	.	4f\	-ſa	.	.
8G/	-ſa	8b-\	-ſa	.	.	.	.	.	.	8b-\	-ſa
4A/	do-	4cc\	do-	.	.	.	.	4f\	do-	4a\	do-
4B-\	-na-	4b-\	-na-	.	.	.	.	4f\	-na-	2dd\	-na-
=18-	=18-	=18-	=18-	=18-	=18-	=18-	=18-	=18-	=18-	=18-	=18-
2F/	-tric'	2a\	-tri-	0r	.	0r	.	2f\	-tri-	.	.
.	.	.	.	.	.	.	.	.	.	2cc\	-tri-
!	!	!	!	!	!	!	!	!LO:SIC:v:t=custos d	!	!	!
2G/	in	2g/	-ce in	.	.	.	.	4eny\	-ce in	.	.
!	!	!	!	!	!	!	!	!LO:LB:g=original	!	!	!
.	.	.	.	.	.	.	.	2d\	do-	4b-\	-ce in
1A	do-	1e	do-	.	.	.	.	.	.	1a	do-
.	.	.	.	.	.	.	.	8c/	.	.	.
.	.	.	.	.	.	.	.	8Bn/	.	.	.
.	.	.	.	.	.	.	.	2c#X/	.	.	.
=19-	=19-	=19-	=19-	=19-	=19-	=19-	=19-	=19-	=19-	=19-	=19-
1D	-no	1f#X	-no	1r	.	1r	.	1d	-no	1a	-no
2d\	All'	2r	.	2G\	All'	2B-\	All'	2r	.	2r	.
2d\	hor	4r	.	2G\	hor	2B-\	hor	4r	.	4r	.
!	!	!	!	!	!	!	!	!	!	!LO:SIC:v:t=custos b	!
.	.	4dd\	All'	.	.	.	.	4g\	All'-	4b-\	Al-
!	!	!	!	!	!	!	!	!	!	!LO:LB:g=original	!
=20-	=20-	=20-	=20-	=20-	=20-	=20-	=20-	=20-	=20-	=20-	=20-
4r	.	2dd\	hor	4r	.	4r	.	2g\	-hor	2b-\	-l'hor
4g\	All'	.	.	4G\	All'	4B-\	All'	.	.	.	.
!LO:SIC:v:t=custos d	!	!	!	!	!	!	!	!	!	!	!
4f\	hor	4r	.	4B-\	hor	4d\	hor	4r	.	4r	.
!LO:LB:g=original	!	!	!	!	!	!	!	!	!	!	!
4.d\	diſ-	4.b-\	diſ-	4.BB-/	diſ-	4.B-\	diſ-	4.f\	diſ-	4.dd\	diſ-
8d\	-ſe il	8b-\	-ſe il	8BB-/	-ſe il	8B-\	-ſe il	8f\	-ſe il	8dd\	-ſe il
!	!	!LO:SIC:v:t=custos b	!	!	!	!LO:SIC:v:t=custos G	!	!	!	!	!
4d\	Paſ-	4b-\	Pa-	4BB-/	Pa-	4B-\	Pa-	4f\	Paſ-	4dd\	Paſ-
!	!	!LO:LB:g=original	!	!	!	!LO:LB:g=original	!	!	!	!	!
1B-\	-to-	1b-\	-ſto-	1E-X\	-ſto-	1G/	-ſto-	1g\	-to-	1ee-X\	-to-
=21-	=21-	=21-	=21-	=21-	=21-	=21-	=21-	=21-	=21-	=21-	=21-
.	.	.	.	.	.	.	.	.	.	.	.
2d\	-re	2b-\	-re	2BB-/	-re	2B-\	-re	2f\	-re	2dd\	-re
4A/	Con	4a\	Con	4F\	Con	4c\	con	4f\	Con	4cc\	Con
4A/	un	4a\	un	4F\	un	4c\	un	4f\	un	4cc\	un
4r	.	4r	.	4r	.	2r	.	4r	.	4r	.
4G/	ſoſ-	4b-\	ſoſ-	4E-X\	ſoſ-	.	.	4B-y/	ſoſ-	4g/	ſoſ-
=22-	=22-	=22-	=22-	=22-	=22-	=22-	=22-	=22-	=22-	=22-	=22-
2G/	-pir	4.b-\	-pir	4.E-y\	-pir	0r	.	4.e-X\	-pir	4.g/	-pir
!	!	!	!	!LO:SIC:v:t=custos D	!	!	!	!	!	!	!
.	.	8cc\	d'A-	8C/	d'A-	.	.	8e-\	d'A-	8g/	d'A-
!	!	!	!	!LO:LB:g=original	!	!	!	!LO:SIC:v:t=custos d	!	!	!
2r	.	1a	-mo-	1D	-mo-	.	.	1d	-mo-	1f#X	-mo-
!	!	!	!	!	!	!	!	!LO:LB:g=original	!	!	!
1r	.	.	.	.	.	.	.	.	.	.	.
.	.	2a\	-re	2D/	-re	.	.	2d\	-re	2f#/	-re
=23-	=23-	=23-	=23-	=23-	=23-	=23-	=23-	=23-	=23-	=23-	=23-
0r	.	4r	.	2G\	Per-	2d\	Per-	0r	.	2g/	Per-
.	.	4b-\	Per	.	.	.	.	.	.	.	.
.	.	4a\	che	4D/	-che	4d\	-che	.	.	4f#X/	-che
.	.	4.b-\	de-	4.G\	de-	4.d\	de-	.	.	4.g/	de-
.	.	8b-\	-gno	8G\	-gno	8d\	-gno	.	.	8g/	-gno
!	!	!	!	!	!	!	!	!	!	!LO:SIC:v:t=custos b	!
.	.	4cc\	non	4F\	non	4f\	non	.	.	4a\	non
!	!	!	!	!	!	!	!	!	!	!LO:LB:g=original	!
.	.	2dd\	ſo-	2B-\	ſo-	2f\	ſo-	.	.	2b-\	ſo-
=24-	=24-	=24-	=24-	=24-	=24-	=24-	=24-	=24-	=24-	=24-	=24-
4r	.	4dd\	-no	2BB-/	-no	2f\	-no	4r	.	4b-\	-no
4B-\	D'ha-	4d/	D'ha-	.	.	.	.	4f\	D'ha-	4dd\	D'ha-
4A/	-uer	4a\	-uer	2r	.	2r	.	4f\	-uer	4cc\	-uer
!	!	!LO:SIC:v:t=custos cc	!	!	!	!	!	!	!	!	!
4G/	la	4b-\	la	.	.	.	.	4g\	la	4b-\	la
!	!	!LO:LB:g=original	!	!	!	!	!	!	!	!	!
4.F/	ro-	4.cc\	ro-	1r	.	1r	.	4cny/	ro-	4.a\	ro-
.	.	.	.	.	.	.	.	4f\	-ſa	.	.
8G/	-ſa	8b-\	-ſa	.	.	.	.	.	.	8b-\	-ſa
4A/	do-	4a\	do-	.	.	.	.	4f\	do-	4cc\	do-
4B-\	-na-	2dd\	-na-	.	.	.	.	4f\	-nat-	4b-\	-na-
=25-	=25-	=25-	=25-	=25-	=25-	=25-	=25-	=25-	=25-	=25-	=25-
2F/	-tric'	.	.	0r	.	0r	.	2f\	-ri-	2a\	-tri-
.	.	2cc\	-tri-	.	.	.	.	.	.	.	.
!LO:SIC:v:t=custos A	!	!	!	!	!	!	!	!	!	!	!
2G/	in	.	.	.	.	.	.	4eny\	-ce in	2g/	-ce in
!LO:LB:g=original	!	!	!	!	!	!	!	!	!	!	!
.	.	4b-\	-ce in	.	.	.	.	2d\	do-	.	.
1A	do-	1a	do-	.	.	.	.	.	.	1e	do-
.	.	.	.	.	.	.	.	8c/	.	.	.
.	.	.	.	.	.	.	.	8Bn/	.	.	.
.	.	.	.	.	.	.	.	2c#X/	.	.	.
=26-	=26-	=26-	=26-	=26-	=26-	=26-	=26-	=26-	=26-	=26-	=26-
1D	-no	1a	-no	1r	.	1r	.	1d	-no	1f#X	-no
2d\	Per	4r	.	2G\	Per-	2B-\	Per-	1r	.	4r	.
.	.	4g/	Per-	.	.	.	.	.	.	4dd\	Per-
4d\	che	4f#X/	-che	4D\	-che	4A\	-che	.	.	2dd\	-che
4.d\	de-	4.g/	de-	4.G\	de-	4.B-\	de-	.	.	.	.
=27-	=27-	=27-	=27-	=27-	=27-	=27-	=27-	=27-	=27-	=27-	=27-
.	.	.	.	.	.	.	.	1r	.	1r	.
8d\J	-gno	8g/	-gno	8G\	-gno	8B-\	-gno	.	.	.	.
4f\	no	4a\	non	4F\	non	4c\	non	.	.	.	.
!	!	!	!	!	!	!LO:SIC:v:t=custos d	!	!	!	!	!
2f\	so-	2b-\	ſo-	2B-\	ſo-	2d\	ſo-	.	.	.	.
!	!	!	!	!	!	!LO:LB:g=original	!	!	!	!	!
2f\	-no	2b-\	-no	4BB-/	-no	2d\	-no	4r	.	4r	.
!	!	!	!	!LO:SIC:v:t=custos A	!	!	!	!	!	!	!
.	.	.	.	4B-\	D'ha-	.	.	4d\	D'ha-	4dd\	D'ha-
!	!	!	!	!LO:LB:g=original	!	!	!	!	!	!	!
2r	.	2r	.	4A\	-uer	2r	.	4e\	-uer	4cc\	-uer
!	!	!	!	!	!	!	!	!LO:SIC:v:t=custos f	!	!LO:SIC:v:t=custos a	!
.	.	.	.	4G\	la	.	.	4e\	la	4b-\	la
!	!	!	!	!	!	!	!	!LO:LB:g=original	!	!LO:LB:g=original	!
=28-	=28-	=28-	=28-	=28-	=28-	=28-	=28-	=28-	=28-	=28-	=28-
4r	.	2r	.	4.F\	ro-	2r	.	4f\	ro-	4.a\	ro-
4f\	D'ha-	.	.	.	.	.	.	4cny/	-ſa	.	.
.	.	.	.	8G\	-ſa	.	.	.	.	8b-\	-ſa
4e\	-uer	4r	.	4A\	do-	4r	.	2r	.	4cc\	do-
4d\	la	4dd\	D'ha-	4B-\	-na-	4B-\	D'ha-	.	.	4fny/	-na-
2f\	ro-	4cc\	-uer	2F\	-tri-	4A/	-uer	2r	.	2a\	-tri-
!	!	!LO:SIC:v:t=custos a	!	!	!	!	!	!	!	!	!
.	.	4b-\	la	.	.	4G/	la	.	.	.	.
!	!	!LO:LB:g=original	!	!	!	!	!	!	!	!	!
2c\	-ſa	4.a\	ro-	2F\	-ce	4.F/	ro-	4r	.	2cc\	-ce
*	*	*	*	*	*	*	*	*	*ij	*	*
.	.	.	.	.	.	.	.	4f\	D'ha-	.	.
.	.	8b-\	-ſa	.	.	8G/	-ſa	.	.	.	.
=29-	=29-	=29-	=29-	=29-	=29-	=29-	=29-	=29-	=29-	=29-	=29-
1r	.	4cc\	do-	4r	.	4A/	do-	4e\	-uer	4r	.
.	.	4fny/	-na-	4BB-/	D'ha-	4B-\	-na-	4d\	la	4dd\	D'ha-
.	.	2a\	-tri-	4AA/	-uer	2c\	-tri-	2e\	ro-	4cc\	-uer
.	.	.	.	4GG/	la	.	.	.	.	4b-\	la
4r	.	2cc\	-ce	4.FF/	ro-	2c\	-ce	2f\	-sa	4.a\	ro-
4f\	D'ha-	.	.	.	.	.	.	.	.	.	.
.	.	.	.	8GG/	-ſa	.	.	.	.	8b-\	-ſa
4e\	-uer	2r	.	4AA/	ro-	4r	.	2r	.	4cc\	do-
!LO:SIC:v:t=custos c	!	!	!	!	!	!	!	!	!	!	!
4d\	la	.	.	4BB-/	-na-	4F/	D'ha-	.	.	4b-\	-na-
!LO:LB:g=original	!	!	!	!	!	!	!	!	!	!	!
=30-	=30-	=30-	=30-	=30-	=30-	=30-	=30-	=30-	=30-	=30-	=30-
4.c\	ro-	4r	.	2FF/	-tric'	4F/	-uer	4r	.	2a\	-tri-
.	.	4a\	D'ha-	.	.	4C/	la	4f\	D'ha-	.	.
8c\	-ſa	.	.	.	.	.	.	.	.	.	.
4.B-\	do-	4g/	-uer	2GG/	in	4G/	ro-	4e\	-uer	2b-\	-ce
.	.	4f/	la	.	.	4D/	-ſa	4d\	la	.	.
8d\	-na-	.	.	.	.	.	.	.	.	.	.
2A/	-tric'	4.e/	ro-	0AA	do-	4r	.	4.c#X/	ro-	2r	.
!	!	!	!	!	!	!LO:SIC:v:t=custos D	!	!	!	!	!
.	.	.	.	.	.	2E/	do-	.	.	.	.
.	.	8d/	-ſa	.	.	.	.	8d\	-ſa	.	.
*	*	*	*	*	*	*	*	*	*Xij	*	*
2A\	in	4c#X/	do-	.	.	.	.	4e\	do-	2a\	in
.	.	4d/	-na-	.	.	4D/	-na-	4f\	-na-	.	.
=31-	=31-	=31-	=31-	=31-	=31-	=31-	=31-	=31-	=31-	=31-	=31-
1A	do-	4e/	-tric'	.	.	4C#X/	-tri-	4e\	-tri-	1a	do-
.	.	4f/	in	.	.	4D/	-ce in	2d\	-ce in	.	.
.	.	2e/	do-	.	.	2E/	do-	.	.	.	.
.	.	.	.	.	.	.	.	4c#X/	do-	.	.
00A	-no.	00f#X	-no.	00D	-no.	00D	-no.	00d	-no.	00a	-no.
=32-	=32-	=32-	=32-	=32-	=32-	=32-	=32-	=32-	=32-	=32-	=32-
.	.	.	.	.	.	.	.	.	.	.	.
=33-	=33-	=33-	=33-	=33-	=33-	=33-	=33-	=33-	=33-	=33-	=33-
.	.	.	.	.	.	.	.	.	.	.	.
1r	.	1r	.	1r	.	1r	.	1r	.	1r	.
=-	=-	=-	=-	=-	=-	=-	=-	=-	=-	=-	=-
*-	*-	*-	*-	*-	*-	*-	*-	*-	*-	*-	*-
!!!system-decoration: s1,s2,s3,s4,s5,s6
!!!ENC: Andrzej Gręziak
!!!END: 2022-06-13
!!!ENC: Julita Ruszuk
!!!END: 2022-07-23
!!!YEC: Copyright 2022 Narodowy Instytut Fryderyka Chopina (https://polishscores.org)
!!!YEM: License CC-BY-4.0 (https://creativecommons.org/licenses/by/4.0)
